packages/ffe-icons/icons/open/300/sm/remember_me.svg

<svg xmlns="http://www.w3.org/2000/svg" height="20" viewBox="0 -960 960 960" width="20"><path d="M276.309-68.001q-26.527 0-45.417-18.89-18.891-18.891-18.891-45.418v-695.382q0-26.527 18.891-45.417 18.89-18.891 45.417-18.891h407.382q26.527 0 45.417 18.891 18.891 18.89 18.891 45.417v695.382q0 26.527-18.891 45.417-18.89 18.89-45.417 18.89H276.309Zm-12.309-110v45.692q0 5.385 3.462 8.847 3.462 3.462 8.847 3.462h407.382q5.385 0 8.847-3.462 3.462-3.462 3.462-8.847v-45.692H264Zm0-603.998h432v-45.692q0-5.385-3.462-8.847-3.462-3.462-8.847-3.462H276.309q-5.385 0-8.847 3.462-3.462 3.462-3.462 8.847v45.692Zm216.5 449.998q-58.5 0-113 19t-102.5 53v30.002h430v-30.002q-47.014-34.8-101.507-53.4t-112.993-18.6ZM480-384q57 0 112 15.101t104 45.207v-406.309H264v406.309q49-30.106 104-45.207Q423-384 480-384Zm-.045-58.001q45.814 0 77.929-32.07t32.115-77.884q0-45.814-32.07-77.929t-77.884-32.115q-45.814 0-77.929 32.07t-32.115 77.884q0 45.814 32.07 77.929t77.884 32.115Zm.045-51.998q-24.246 0-41.124-16.877-16.877-16.878-16.877-41.124 0-24.246 16.877-41.124 16.878-16.877 41.124-16.877 24.246 0 41.124 16.877 16.877 16.878 16.877 41.124 0 24.246-16.877 41.124-16.878 16.877-41.124 16.877Zm0 264h215-430 215ZM480-552Zm0-229.999Zm0 603.998Z"/></svg>

<svg xmlns="http://www.w3.org/2000/svg" height="20" viewBox="0 -960 960 960" width="20"><path d="M276.31-68q-26.53 0-45.42-18.89T212-132.31v-695.38q0-26.53 18.89-45.42T276.31-892h407.38q26.53 0 45.42 18.89T748-827.69v695.38q0 26.53-18.89 45.42T683.69-68H276.31ZM264-178v45.69q0 5.39 3.46 8.85t8.85 3.46h407.38q5.39 0 8.85-3.46t3.46-8.85V-178H264Zm0-604h432v-45.69q0-5.39-3.46-8.85t-8.85-3.46H276.31q-5.39 0-8.85 3.46t-3.46 8.85V-782Zm216.5 450q-58.5 0-113 19T265-260v30h430v-30q-47.01-34.8-101.51-53.4Q539-332 480.5-332Zm-.5-52q57 0 112 15.1t104 45.21V-730H264v406.31q49-30.11 104-45.21Q423-384 480-384Zm-.05-58q45.82 0 77.93-32.07Q590-506.14 590-551.95q0-45.82-32.07-77.93Q525.86-662 480.05-662q-45.82 0-77.93 32.07Q370-597.86 370-552.05q0 45.82 32.07 77.93Q434.14-442 479.95-442Zm.05-52q-24.25 0-41.12-16.88Q422-527.75 422-552q0-24.25 16.88-41.12Q455.75-610 480-610q24.25 0 41.12 16.88Q538-576.25 538-552q0 24.25-16.88 41.12Q504.25-494 480-494Zm0 264h215-430 215Zm0-322Zm0-230Zm0 604Z"/></svg>
